X: 14077
T: RACHEL'S REEL
C: Bob McQuillen 24 May'08
B: Bob's Note Book 14 #77
%R: reel
%D:2008
Z: 2020 John Chambers <jc:trillian.mit.edu>
M: C
L: 1/8
K: C
ED \
| C2CE DCEG | AcGE DCEG | c2cd ecAc | GAce d2cd |
| e2ce dcAG | cAGE DCED | C2EG AGEC | DCDE C2 :|
|: cd \
| e2ge dced | cedc A2GA | c2cd ecGA | cAGE D2ED |
| C2EG AGED | CEGc A2cd | ecdc AGce | gede c2 :|
%%begintext align
%% This tune is for
%% Rachel Allen. Rachel is either in Oregon or
%% here in Peterborough on Summer Street. When
%% she's here, she has her morning coffee at Aesop's,
%% and dances at the Monday Night Dance in Nelson.
%% Hope to see you soon, Rachel - love, MAC
%%endtext

%%sep 1 1 500

%%sep 1 1 500

